X:21
T:Light Horse Reel. LIT.021
M:2/4
Q:1/4=140
L:1/8
B:Wm. Litten MS, 1802
Z:Village Music Project 2017 Anne Wride
K:G
B | GB dB | gB dB | gB dB aA AB |
GB dB | gB dB | cA dc | BG G :|
|: f | ga ge | ab af | ga ge | be ef |
ga ge | ab af | ge dc | BG G :|

